Papirus/24x24/panel/pushbullet-indicator-sync1-dark.svg

<?xml version="1.0" encoding="UTF-8" standalone="no"?>
<svg xmlns:dc="http://purl.org/dc/elements/1.1/" xmlns:cc="http://creativecommons.org/ns#" xmlns:rdf="http://www.w3.org/1999/02/22-rdf-syntax-ns#" xmlns:svg="http://www.w3.org/2000/svg" xmlns="http://www.w3.org/2000/svg" height="24" width="24" version="1.1" id="svg3039">
    <metadata id="metadata3045">
        <rdf:RDF>
            <cc:Work rdf:about="">
                <dc:format>
                    image/svg+xml
                </dc:format>
                <dc:type rdf:resource="http://purl.org/dc/dcmitype/StillImage"/>
                <dc:title/>
            </cc:Work>
        </rdf:RDF>
    </metadata>
    <path id="path3075" d="m 3.9997524,6 0,12 2,0 0,-12 -2,0 z m 4,0 0,12 4.2519536,-0.0332 c 2.931252,-0.03263 3.207984,-0.07195 4.447266,-0.675781 2.70203,-1.316495 3.979696,-4.504659 2.941406,-7.34375 C 18.954648,8.0722573 17.393122,6.684604 15.40405,6.1796875 14.779295,6.0210954 14.38327,6 11.954831,6 L 7.9997524,6 Z m 6.2636726,1.9179688 c 0.797566,0.03798 1.68057,0.3700227 2.564453,1.2539062 1.048357,1.048357 1.312181,2.101533 1.238281,3.005859 L 18.948972,11.292969 19.656003,12 18.241941,13.414062 17.534909,14.121094 16.827878,13.414062 15.413815,12 l 0.707032,-0.707031 0.927734,0.927734 c 0.08627,-0.70145 -0.100419,-1.514482 -0.927734,-2.341797 -2.121321,-2.1213201 -4.242188,0 -4.242188,0 L 11.171628,9.171875 c 0,0 1.337152,-1.3374629 3.091797,-1.2539062 z M 10.464596,9.878906 11.171628,10.585938 12.585691,12 11.878659,12.707031 10.950924,11.779297 c -0.08582,0.701506 0.100413,1.514489 0.927735,2.341797 2.121314,2.121327 4.242188,0 4.242188,0 l 0.707031,0.707031 c 0,0 -2.827816,2.82842 -5.65625,0 -1.04835,-1.048364 -1.3121745,-2.101541 -1.2382818,-3.005859 L 9.0505336,12.707031 8.3435024,12 9.7575649,10.585938 10.464596,9.878906 Z" style="opacity:0.50000018;fill:#000000;fill-opacity:1"/>
</svg>

<?xml version="1.0" encoding="UTF-8" standalone="no"?>
<svg id="svg3039" xmlns:rdf="http://www.w3.org/1999/02/22-rdf-syntax-ns#" xmlns="http://www.w3.org/2000/svg" height="24" width="24" version="1.1" xmlns:cc="http://creativecommons.org/ns#" xmlns:dc="http://purl.org/dc/elements/1.1/">
 <metadata id="metadata3045">
  <rdf:RDF>
   <cc:Work rdf:about="">
    <dc:format>image/svg+xml</dc:format>
    <dc:type rdf:resource="http://purl.org/dc/dcmitype/StillImage"/>
    <dc:title/>
   </cc:Work>
  </rdf:RDF>
 </metadata>
 <path id="path3075" opacity="0.5" d="m3.9998 6v12h2v-12h-2zm4 0v12l4.252-0.0332c2.9313-0.03263 3.208-0.07195 4.4473-0.67578 2.702-1.3165 3.9797-4.5047 2.9414-7.3438-0.686-1.8751-2.248-3.2628-4.237-3.7677-0.625-0.1586-1.021-0.1797-3.449-0.1797h-3.9552zm6.2637 1.918c0.79757 0.03798 1.6806 0.37002 2.5645 1.2539 1.0484 1.0484 1.3122 2.1015 1.2383 3.0059l0.882-0.885 0.707 0.707-1.414 1.414-0.707 0.707-0.707-0.707-1.414-1.414 0.70703-0.70703 0.92773 0.92773c0.08627-0.70145-0.10042-1.5145-0.92773-2.3418-2.1213-2.1213-4.2422 0-4.2422 0l-0.707-0.7073s1.3372-1.3375 3.0918-1.2539zm-3.799 1.9609 0.707 0.7071 1.414 1.414-0.707 0.707-0.928-0.928c-0.08582 0.70151 0.10041 1.5145 0.92774 2.3418 2.1213 2.1213 4.2422 0 4.2422 0l0.70703 0.70703s-2.8278 2.8284-5.6562 0c-1.0484-1.0484-1.3122-2.1015-1.2383-3.0059l-0.883 0.885-0.707-0.707 1.4141-1.414 0.7074-0.7071z"/>
</svg>
